actions/24/media-skip-backward.svg

<?xml version="1.0" encoding="UTF-8" standalone="no"?>
<svg
   xmlns:dc="http://purl.org/dc/elements/1.1/"
   xmlns:cc="http://creativecommons.org/ns#"
   xmlns:rdf="http://www.w3.org/1999/02/22-rdf-syntax-ns#"
   xmlns:svg="http://www.w3.org/2000/svg"
   xmlns="http://www.w3.org/2000/svg"
   xmlns:xlink="http://www.w3.org/1999/xlink"
   version="1.1"
   width="24"
   height="24"
   id="svg4524">
  <defs
     id="defs4526">
    <radialGradient
       cx="16.202444"
       cy="-19.005346"
       r="19.99999"
       fx="16.202444"
       fy="-19.005346"
       id="radialGradient3008-6"
       xlink:href="#linearGradient2867-449-88-871-390-598-476-591-434-148-57-177-641-289-620-227-114-444-680-744-4-1"
       gradientUnits="userSpaceOnUse"
       gradientTransform="matrix(0,1.5000006,-1.5241254,0,-16.959842,-23.077676)" />
    <linearGradient
       id="linearGradient2867-449-88-871-390-598-476-591-434-148-57-177-641-289-620-227-114-444-680-744-4-1">
      <stop
         id="stop5430-5-0"
         style="stop-color:#737373;stop-opacity:1"
         offset="0" />
      <stop
         id="stop5432-2-0"
         style="stop-color:#636363;stop-opacity:1"
         offset="0.26238" />
      <stop
         id="stop5434-9-6"
         style="stop-color:#4b4b4b;stop-opacity:1"
         offset="0.704952" />
      <stop
         id="stop5436-2-7"
         style="stop-color:#3f3f3f;stop-opacity:1"
         offset="1" />
    </linearGradient>
    <radialGradient
       cx="16.202444"
       cy="-19.005346"
       r="19.99999"
       fx="16.202444"
       fy="-19.005346"
       id="radialGradient2997"
       xlink:href="#linearGradient2867-449-88-871-390-598-476-591-434-148-57-177-641-289-620-227-114-444-680-744-4-1"
       gradientUnits="userSpaceOnUse"
       gradientTransform="matrix(0,1.5000006,-1.5241254,0,-16.959842,-23.077676)" />
  </defs>
  <metadata
     id="metadata4529">
    <rdf:RDF>
      <cc:Work
         rdf:about="">
        <dc:format>image/svg+xml</dc:format>
        <dc:type
           rdf:resource="http://purl.org/dc/dcmitype/StillImage" />
        <dc:title />
      </cc:Work>
    </rdf:RDF>
  </metadata>
  <path
     d="m 3.0120168,7.483895 -0.5281213,0 0,10.03221 0.532209,0 -0.00409,-10.03221 z"
     id="path2343"
     style="opacity:0.02999998;fill:none;stroke:#000000;stroke-width:0.9677909;stroke-linecap:square;stroke-linejoin:miter;stroke-miterlimit:4;stroke-opacity:1;stroke-dasharray:none;stroke-dashoffset:0.69999992" />
  <path
     d="M 1.75,6 C 1.3460007,6 1,6.3460007 1,6.75 l 0,11.5 C 1,18.653999 1.3460007,19 1.75,19 l 2.5,0 C 4.6539993,19 5,18.653999 5,18.25 l 0,-4.28125 8.25,4.96875 A 0.49473539,0.49473539 0 0 0 14,18.5 l 0,-4.53125 8.25,4.96875 A 0.49473539,0.49473539 0 0 0 23,18.5 l 0,-12 A 0.49473539,0.49473539 0 0 0 22.25,6.0625 L 14,11.03125 14,6.5 A 0.49473539,0.49473539 0 0 0 13.25,6.0625 L 5,11.03125 5,6.75 C 5,6.3460007 4.6539993,6 4.25,6 l -2.5,0 z"
     id="path3999"
     style="color:#000000;fill:url(#radialGradient2997);fill-opacity:1;fill-rule:nonzero;stroke:none;stroke-width:1;marker:none;visibility:visible;display:inline;overflow:visible;enable-background:accumulate" />
  <path
     d="M 1.75,6.5 C 1.6115,6.5 1.5,6.6115 1.5,6.75 l 0,11.5 c 0,0.1385 0.1115,0.25 0.25,0.25 l 2.5,0 c 0.1385,0 0.25,-0.1115 0.25,-0.25 l 0,-5.15625 9,5.40625 0,-5.40625 9,5.40625 0,-12 -9,5.40625 L 13.5,6.5 4.5,11.90625 4.5,6.75 C 4.5,6.6115 4.3885,6.5 4.25,6.5 l -2.5,0 z"
     id="rect3868"
     style="opacity:0.1;color:#000000;fill:none;stroke:#000000;stroke-width:1;stroke-linecap:round;stroke-linejoin:round;stroke-miterlimit:4;stroke-opacity:1;stroke-dasharray:none;marker:none;visibility:visible;display:inline;overflow:visible;enable-background:accumulate" />
  <path
     d="m 2.53125,7.53125 0,9.9375 0.9375,0 0,-4.375 A 1.0385654,1.0385654 0 0 1 3.65625,12.5 1.0385654,1.0385654 0 0 1 3.46875,11.90625 l 0,-4.375 -0.9375,0 z M 12.46875,8.3125 5.5,12.5 l 6.96875,4.1875 0,-3.59375 A 1.0385654,1.0385654 0 0 1 12.65625,12.5 1.0385654,1.0385654 0 0 1 12.46875,11.90625 l 0,-3.59375 z m 9,0 L 14.5,12.5 l 6.96875,4.1875 0,-8.375 z"
     id="path4060"
     style="opacity:0.02999998;color:#000000;fill:none;stroke:#000000;stroke-width:1;stroke-linecap:butt;stroke-linejoin:miter;stroke-miterlimit:4;stroke-opacity:1;stroke-dasharray:none;marker:none;visibility:visible;display:inline;overflow:visible;enable-background:accumulate" />
</svg>

<svg xmlns="http://www.w3.org/2000/svg" xmlns:xlink="http://www.w3.org/1999/xlink" viewBox="0 0 24 24"><defs><linearGradient id="a"><stop offset="0" stop-color="#737373"/><stop offset=".262" stop-color="#636363"/><stop offset=".705" stop-color="#4b4b4b"/><stop offset="1" stop-color="#3f3f3f"/></linearGradient><radialGradient cx="16.202" cy="-19.005" r="20" fx="16.202" fy="-19.005" id="b" xlink:href="#a" gradientUnits="userSpaceOnUse" gradientTransform="matrix(0 1.5 -1.52413 0 -16.96 -23.078)"/></defs><path d="M3.012 7.484h-.528v10.032h.532L3.012 7.484z" opacity=".03" fill="none" stroke="#000" stroke-width=".968" stroke-linecap="square" stroke-dashoffset=".7"/><path d="M1.75 6a.763.763 0 0 0-.75.75v11.5c0 .404.346.75.75.75h2.5c.404 0 .75-.346.75-.75v-4.28l8.25 4.967A.495.495 0 0 0 14 18.5v-4.53l8.25 4.967A.495.495 0 0 0 23 18.5v-12a.495.495 0 0 0-.75-.438L14 11.032V6.5a.495.495 0 0 0-.75-.438L5 11.032V6.75A.763.763 0 0 0 4.25 6h-2.5z" color="#000" fill="url(#b)" overflow="visible"/><path d="M1.75 6.5a.25.25 0 0 0-.25.25v11.5c0 .14.112.25.25.25h2.5a.25.25 0 0 0 .25-.25v-5.156l9 5.406v-5.406l9 5.406v-12l-9 5.406V6.5l-9 5.406V6.75a.25.25 0 0 0-.25-.25h-2.5z" opacity=".1" color="#000" fill="none" stroke="#000" stroke-linecap="round" stroke-linejoin="round" overflow="visible"/><path d="M2.53 7.53v9.94h.94v-4.376a1.04 1.04 0 0 1 .186-.594 1.04 1.04 0 0 1-.187-.594V7.53h-.94zm9.94.782L5.5 12.5l6.97 4.188v-3.594a1.04 1.04 0 0 1 .186-.594 1.04 1.04 0 0 1-.187-.594V8.312zm9 0L14.5 12.5l6.97 4.188V8.313z" opacity=".03" color="#000" fill="none" stroke="#000" overflow="visible"/></svg>
